X:2
T:Key signature change
T:multi rests and measure repeat
M:2
L:1/4
K:C
Z4|"C"CEGc|[K:A]"A"Acea|[K:B]"B"Bdfb|[K:A]"A"Acea|
[K:Eb]"Eb"EGBe|/|[K:Cb]"Cb"CEGc|[K:C]"C"CEGc|
